packages/icons/src/config-change.svg

<svg fill="none" viewBox="0 0 14 15" xmlns="http://www.w3.org/2000/svg"><path clip-rule="evenodd" d="m4.39634.302246v.000318c-2.37028.022335-4.3100652 2.114226-4.3574813 4.473236h-.0128999l-.0259588 9.5377 9.55495.0258.00069-.0012c2.35556-.0413 4.36756-1.9754 4.41446-4.3219h.0036l.0263-9.687851zm1.77838 3.008114c-.56774 0-1.61414.35778-1.66505.41077-.0606.06308-.06291.12398-.04346.19009.03239.11004.22974.35807.44752.57574.08699.08693.17695.17612.2679.26629.34604.34309.70641.70039.97216 1.00085-.11418.11057-.22837.22653-.34255.34249-.18538.18826-.37076.37653-.55613.54173-.2303-.22353-.48356-.48279-.73464-.73981-.17219-.17627-.34336-.3515-.5054-.51343-.03531-.03528-.07053-.07194-.1055-.10835-.10809-.11253-.21379-.22256-.31248-.28154-.13482-.08057-.2399-.08351-.36225 0-.2154.147-.47486 1.32831-.3971 2.0121.06936.61017.31515 1.24035.83597 1.82408.53307.59748 1.19455.89949 1.81131 1.01649.62231.1181 1.20226.0753 1.83222-.14622.19142.19304.37722.37446.56329.55616l.00002.0001c.15685.1531.31389.3065.47466.4672.06525.0652.12948.1325.19353.1996.26091.2735.51882.5438.83057.6567.54399.197 1.37419.0134 1.69289-.7309.0872-.204.1209-.455.0975-.6824-.0179-.17358-.085-.43561-.2348-.61941l-.0003-.0005c-.0765-.1117-.5203-.54053-.5203-.54053v.00003c-.0778-.07721-.1587-.1546-.2412-.23354v-.00001c-.0937-.08967-.18952-.18134-.28522-.277l-.47373-.47337c-.04681-.04679-.09342-.09804-.13982-.14906l-.00002-.00003c-.11504-.1265-.22875-.25154-.34089-.30349-.28161-.13039-.58955.20488-.46672.46646.05354.11409.17746.22643.30327.34048.05106.04628.10242.09285.14953.13993.16194.16182.32793.32419.49287.48552l.00013.00013.00009.00008c.16343.15987.32584.31873.48226.47505.01584.01584.03147.03181.04697.04779l.00039.00044c.02158.02224.04282.04449.06389.06652v.00005c.0327.03428.0649.06801.0971.10029.1413.14927.3287.35487.3585.42677l.0017.0048.0004.0011.0023.0067c.1695.5462-.47442 1.047-.96142.7519-.06804-.0412-.11996-.1013-.17612-.1664-.02967-.0343-.06052-.0701-.09555-.1051-.21858-.2184-.45773-.453-.69971-.69035l-.00012-.00012c-.37401-.36682-.75475-.74026-1.07666-1.07097-.91322.49592-1.94491.54769-2.86322-.10444-.54564-.38741-.83364-.91265-.9823-1.38544-.15231-.48451-.1589-.97549-.02788-1.42032l1.15647 1.15571c.04205.04203.08168.08685.12037.1306.08461.09569.16472.18629.2558.23144.22248.11026.39967-.07159.61875-.29644.02977-.03055.06032-.0619.09185-.09342l.40407-.40384c.04912-.04909.11564-.1103.1891-.1779.22529-.20732.51586-.47471.57025-.63666.06767-.20149-.09807-.36521-.28903-.55385l-.05233-.05189c-.4129-.41266-.79131-.79391-1.17037-1.1836.74418-.1704 1.5786-.09416 2.32683.52913.7114.59263.95798 1.40261.94049 2.02601-.00079.02784-.00413.05615-.00749.08458-.00772.06542-.01552.13149.00749.19394.12274.26357.46445.33272.64086.06964.05325-.07935.05106-.23361.04936-.35401-.00029-.02002-.00056-.0391-.00056-.05675 0-.69343-.23189-1.41576-.78022-2.07478-.74387-.89392-1.69967-1.16961-2.48009-1.16961zm3.42199 9.19084c1.41229-.0438 2.49229-1.079 2.53439-2.4901h-.0037l.0373-7.87265-7.77365-.00503c-1.45676.00387-2.50793 1.22817-2.53785 2.67511l-.03725 7.68727z" fill="#27ae60" fill-rule="evenodd"/></svg>

<svg  viewBox="0 0 14 15" fill="none" xmlns="http://www.w3.org/2000/svg">
<path fill-rule="evenodd" clip-rule="evenodd" d="M4.39634 0.302246V0.302564C2.02606 0.324899 0.0862748 2.41679 0.0388587 4.7758H0.0259588L0 14.3135L9.55495 14.3393L9.55564 14.3381C11.9112 14.2968 13.9232 12.3627 13.9701 10.0162H13.9737L14 0.328349L4.39634 0.302246ZM6.17472 3.31036C5.60698 3.31036 4.56058 3.66814 4.50967 3.72113C4.44907 3.78421 4.44676 3.84511 4.46621 3.91122C4.4986 4.02126 4.69595 4.26929 4.91373 4.48696C5.00072 4.57389 5.09068 4.66308 5.18163 4.75325C5.52767 5.09634 5.88804 5.45364 6.15379 5.7541C6.03961 5.86467 5.92542 5.98063 5.81124 6.09659C5.62586 6.28485 5.44048 6.47312 5.25511 6.63832C5.02481 6.41479 4.77155 6.15553 4.52047 5.89851C4.34828 5.72224 4.17711 5.54701 4.01507 5.38508C3.97976 5.3498 3.94454 5.31314 3.90957 5.27673C3.80148 5.1642 3.69578 5.05417 3.59709 4.99519C3.46227 4.91462 3.35719 4.91168 3.23484 4.99519C3.01944 5.14219 2.75998 6.3235 2.83774 7.00729C2.9071 7.61746 3.15289 8.24764 3.67371 8.83137C4.20678 9.42885 4.86826 9.73086 5.48502 9.84786C6.10733 9.96596 6.68728 9.92316 7.31724 9.70164C7.50866 9.89468 7.69446 10.0761 7.88053 10.2578L7.88055 10.2579C8.0374 10.411 8.19444 10.5644 8.35521 10.7251C8.42046 10.7903 8.48469 10.8576 8.54874 10.9247C8.80965 11.1982 9.06756 11.4685 9.37931 11.5814C9.9233 11.7784 10.7535 11.5948 11.0722 10.8505C11.1594 10.6465 11.1931 10.3955 11.1697 10.1681C11.1518 9.99452 11.0847 9.73249 10.9349 9.54869L10.9346 9.54819C10.8581 9.43649 10.4143 9.00766 10.4143 9.00766V9.00769C10.3365 8.93048 10.2556 8.85309 10.1731 8.77415L10.1731 8.77414C10.0794 8.68447 9.98358 8.5928 9.88788 8.49714L9.41415 8.02377C9.36734 7.97698 9.32073 7.92573 9.27433 7.87471L9.27431 7.87468C9.15927 7.74818 9.04556 7.62314 8.93342 7.57119C8.65181 7.4408 8.34387 7.77607 8.4667 8.03765C8.52024 8.15174 8.64416 8.26408 8.76997 8.37813C8.82103 8.42441 8.87239 8.47098 8.9195 8.51806C9.08144 8.67988 9.24743 8.84225 9.41237 9.00358L9.4125 9.00371L9.41259 9.00379C9.57602 9.16366 9.73843 9.32252 9.89485 9.47884C9.91069 9.49468 9.92632 9.51065 9.94182 9.52663L9.94221 9.52707C9.96379 9.54931 9.98503 9.57156 10.0061 9.59359L10.0061 9.59364C10.0388 9.62792 10.071 9.66165 10.1032 9.69393C10.2445 9.8432 10.4319 10.0488 10.4617 10.1207L10.4634 10.1255L10.4638 10.1266V10.1266L10.4661 10.1333C10.6356 10.6795 9.99168 11.1803 9.50468 10.8852C9.43664 10.844 9.38472 10.7839 9.32856 10.7188C9.29889 10.6845 9.26804 10.6487 9.23301 10.6137C9.01443 10.3953 8.77528 10.1607 8.5333 9.92335L8.53318 9.92323C8.15917 9.55641 7.77843 9.18297 7.45652 8.85226C6.5433 9.34818 5.51161 9.39995 4.5933 8.74782C4.04766 8.36041 3.75966 7.83517 3.611 7.36238C3.45869 6.87787 3.4521 6.38689 3.58312 5.94206L4.73959 7.09777C4.78164 7.1398 4.82127 7.18462 4.85996 7.22837C4.94457 7.32406 5.02468 7.41466 5.11576 7.45981C5.33824 7.57007 5.51543 7.38822 5.73451 7.16337C5.76428 7.13282 5.79483 7.10147 5.82636 7.06995L6.23043 6.66611C6.27955 6.61702 6.34607 6.55581 6.41953 6.48821L6.41953 6.48821C6.64482 6.28089 6.93539 6.0135 6.98978 5.85155C7.05745 5.65006 6.89171 5.48634 6.70075 5.2977L6.64842 5.24581C6.23552 4.83315 5.85711 4.4519 5.47805 4.06221C6.22223 3.89181 7.05665 3.96805 7.80488 4.59134C8.51628 5.18397 8.76286 5.99395 8.74537 6.61735C8.74458 6.64519 8.74124 6.6735 8.73788 6.70193C8.73016 6.76735 8.72236 6.83342 8.74537 6.89587C8.86811 7.15944 9.20982 7.22859 9.38623 6.96551C9.43948 6.88616 9.43729 6.7319 9.43559 6.6115C9.4353 6.59148 9.43503 6.5724 9.43503 6.55475C9.43503 5.86132 9.20314 5.13899 8.65481 4.47997C7.91094 3.58605 6.95514 3.31036 6.17472 3.31036ZM9.59671 12.5012C11.009 12.4574 12.089 11.4222 12.1311 10.0111H12.1274L12.1647 2.13845L4.39105 2.13342C2.93429 2.13729 1.88312 3.36159 1.8532 4.80853L1.81595 12.4958L9.59671 12.5012Z" fill="#27AE60"/>
</svg>
